Icons/Bukkit.svg

<svg xmlns="http://www.w3.org/2000/svg" xml:space="preserve" fill-rule="evenodd" stroke-linecap="round" stroke-linejoin="round" clip-rule="evenodd" viewBox="0 0 24 24"><path fill="none" d="M0 0h24v24H0z"/><path fill="none" stroke="#000" stroke-width="2" d="M3 9.558v3.226l1.595 4.891h1.631v2.694L7.892 22h8.216l1.666-1.631v-2.694h1.631L21 12.784V9.558m-18 0h4.892v1.595h8.216V9.558H21m-18 0V6.332h1.595V4.701L7.892 3h8.216l3.297 1.701v1.631H21v3.226"/></svg>

<?xml version="1.0" encoding="UTF-8" standalone="no"?>
<!DOCTYPE svg PUBLIC "-//W3C//DTD SVG 1.1//EN" "http://www.w3.org/Graphics/SVG/1.1/DTD/svg11.dtd">
<svg width="100%" height="100%" viewBox="0 0 24 24" version="1.1" xmlns="http://www.w3.org/2000/svg" xmlns:xlink="http://www.w3.org/1999/xlink" xml:space="preserve" xmlns:serif="http://www.serif.com/" style="fill-rule:evenodd;clip-rule:evenodd;stroke-linecap:round;stroke-linejoin:round;">
    <rect id="Bukkit" x="0" y="0" width="24" height="24" style="fill:none;"/>
    <path d="M3,9.558L3,12.784L4.595,17.675L6.226,17.675L6.226,20.369L7.892,22L16.108,22L17.774,20.369L17.774,17.675L19.405,17.675L21,12.784L21,9.558M3,9.558L7.892,9.558L7.892,11.153L16.108,11.153L16.108,9.558L21,9.558M3,9.558L3,6.332L4.595,6.332L4.595,4.701L7.892,3L16.108,3L19.405,4.701L19.405,6.332L21,6.332L21,9.558" style="fill:none;fill-rule:nonzero;stroke:#000;stroke-width:2px;"/>
</svg>
